X: 30902
T: Over The Bridge To Peggy
R: reel
M: 4/4
K: Dmajor
A3 B AFDF|ABdB ~A2 FA|BAFB ABdf|afed BddB|
A3 B AFDF|ABdB ~A2 FA|BAFB ABdf|afed BddB|
defg a3 f|b3 f ~a3 f|defg a3 b|afdf eB~B2|
defg a3 f|b3 f ~a3 g|faaf e3 f|d2fd efdB|

